WPMap/assets/css/svg/icon_fortress.svg

<svg width="70" height="54" viewBox="0 0 70 54" fill="none" xmlns="http://www.w3.org/2000/svg">
<path d="M66.4933 0.131175L64.1852 0V3.45425H60.6785V0H58.3259V3.45425L54.7749 3.017V0H52.5111V6.9085C52.5111 6.9085 66.0938 6.9085 66.4933 6.9085V0.131175ZM64.2295 9.18219H52.5555V11.4559H64.2295V9.18219ZM52.5111 47.1352V49.4526H70V47.1352H52.5111ZM66.0051 31.6567C64.0076 25.098 63.9188 20.3757 63.9188 20.3757L64.1852 13.817H52.5111V44.8615H68.8459C68.8459 44.8178 68.624 40.2704 66.0051 31.6567ZM60.7229 26.4534H56.0178V19.5449H60.7229V26.4534ZM17.5333 0H15.2695V3.017L11.7185 3.45425V0H9.36588V3.45425H5.85923V0L3.59543 0.131175L3.55104 6.9085C3.95054 6.9085 17.5333 6.9085 17.5333 6.9085V0ZM5.85923 11.4996H17.5333V9.18219H5.85923V11.4996ZM0 49.4089H17.4889V47.0915H0V49.4089ZM17.5333 13.817H5.85923L6.12555 20.3757C6.12555 20.3757 6.03678 25.1417 4.03931 31.6567C1.42042 40.3142 1.19847 44.8615 1.19847 44.8615H17.5333V13.817ZM14.0266 26.4534H9.32149V19.5449H14.0266V26.4534ZM20.9956 10.4939H49.0044V8.04534H20.9956V10.4939ZM20.9956 54H30.3614L30.317 42.0632C30.317 39.3085 32.4477 37.0785 35.0222 37.0785C37.5967 37.0785 39.7717 39.3522 39.7717 42.0632L39.6829 54H49.0044V12.6364H20.9956V54ZM40.8814 20.6818H45.5422V27.5903H40.8814V20.6818ZM32.6696 20.6818H37.3304V27.5903H32.6696V20.6818ZM24.5022 20.6818H29.163V27.5903H24.5022V20.6818Z" fill="black"/>
</svg>

<svg xmlns="http://www.w3.org/2000/svg" width="70" height="54" fill="none"><path fill="#000" d="M66.493.131 64.185 0v3.454h-3.507V0h-2.352v3.454l-3.551-.437V0H52.51v6.909h13.982V.13ZM64.23 9.182H52.555v2.274H64.23V9.182ZM52.51 47.135v2.318H70v-2.318H52.511Zm13.494-15.478c-1.997-6.559-2.086-11.281-2.086-11.281l.266-6.559H52.511v31.044h16.335c0-.043-.222-4.59-2.84-13.204Zm-5.282-5.204h-4.705v-6.908h4.705v6.908ZM17.533 0H15.27v3.017l-3.55.437V0H9.366v3.454H5.859V0L3.595.131l-.044 6.777h13.982V0ZM5.86 11.5h11.674V9.182H5.86V11.5ZM0 49.409h17.489v-2.317H0v2.317Zm17.533-35.592H5.86l.267 6.559s-.09 4.766-2.087 11.28C1.42 40.315 1.2 44.863 1.2 44.863h16.334V13.816Zm-3.506 12.636H9.32v-6.908h4.706v6.908Zm6.969-15.96h28.008V8.046H20.996v2.449Zm0 43.507h9.365l-.044-11.937c0-2.755 2.13-4.985 4.705-4.985s4.75 2.274 4.75 4.985L39.682 54h9.322V12.636H20.996V54ZM40.88 20.682h4.661v6.908h-4.66v-6.908Zm-8.211 0h4.66v6.908h-4.66v-6.908Zm-8.168 0h4.661v6.908h-4.66v-6.908Z"/></svg>
